icon/fa/file-invoice-dollar.svg

<svg xmlns="http://www.w3.org/2000/svg" viewBox="0 0 384 512"><!--! Font Awesome Free 6.1.2 by @fontawesome - https://fontawesome.com License - https://fontawesome.com/license/free (Icons: CC BY 4.0, Fonts: SIL OFL 1.1, Code: MIT License) Copyright 2022 Fonticons, Inc.--><path d="M384 128H256V0l128 128zm-128 32h128v304c0 26.51-21.49 48-48 48H48c-26.51 0-48-21.5-48-48V48C0 21.49 21.49 0 48 0h176l.004 128C224 145.7 238.3 160 256 160zM64 88c0 4.38 3.63 8 8 8h80c4.4 0 8-3.62 8-8V72c0-4.37-3.6-8-8-8H72c-4.37 0-8 3.63-8 8v16zm8 72h80c4.4 0 8-3.6 8-8v-16c0-4.4-3.6-8-8-8H72c-4.37 0-8 3.6-8 8v16c0 4.4 3.63 8 8 8zm125.5 156.8-6.4-1.6c-22.8-7-22.3-11.1-21.5-14.7 1.375-7.812 16.59-9.719 30.27-7.625 5.594.844 11.73 2.812 17.59 4.844 10.39 3.594 21.83-1.938 25.45-12.34 3.625-10.44-1.891-21.84-12.33-25.47-7.219-2.484-13.11-4.078-18.56-5.273V248c0-11.03-8.953-20-20-20s-20 8.969-20 20v5.992C149.6 258.8 133.8 272.8 130.2 293.7c-7.406 42.84 33.19 54.75 50.52 59.84l5.812 1.688c29.28 8.375 28.8 11.19 27.92 16.28-1.375 7.812-16.59 9.75-30.31 7.625-6.938-1.031-15.81-4.219-23.66-7.031l-4.469-1.625c-10.41-3.594-21.83 1.812-25.52 12.22-3.672 10.41 1.781 21.84 12.2 25.53l4.266 1.5c7.758 2.789 16.38 5.59 25.06 7.512V424c0 11.03 8.953 20 20 20s20-8.969 20-20v-6.254c22.36-4.793 38.21-18.53 41.83-39.43C261.3 335 219.8 323.1 197.5 316.8z"/></svg>

<svg xmlns="http://www.w3.org/2000/svg" viewBox="0 0 384 512" height="1em" width="1em">
<!--! Font Awesome Free 6.1.2 by @fontawesome - https://fontawesome.com License - https://fontawesome.com/license/free (Icons: CC BY 4.0, Fonts: SIL OFL 1.1, Code: MIT License) Copyright 2022 Fonticons, Inc.-->
  <path d="M384 128h-128V0L384 128zM256 160H384v304c0 26.51-21.49 48-48 48h-288C21.49 512 0 490.5 0 464v-416C0 21.49 21.49 0 48 0H224l.0039 128C224 145.7 238.3 160 256 160zM64 88C64 92.38 67.63 96 72 96h80C156.4 96 160 92.38 160 88v-16C160 67.63 156.4 64 152 64h-80C67.63 64 64 67.63 64 72V88zM72 160h80C156.4 160 160 156.4 160 152v-16C160 131.6 156.4 128 152 128h-80C67.63 128 64 131.6 64 136v16C64 156.4 67.63 160 72 160zM197.5 316.8L191.1 315.2C168.3 308.2 168.8 304.1 169.6 300.5c1.375-7.812 16.59-9.719 30.27-7.625c5.594 .8438 11.73 2.812 17.59 4.844c10.39 3.594 21.83-1.938 25.45-12.34c3.625-10.44-1.891-21.84-12.33-25.47c-7.219-2.484-13.11-4.078-18.56-5.273V248c0-11.03-8.953-20-20-20s-20 8.969-20 20v5.992C149.6 258.8 133.8 272.8 130.2 293.7c-7.406 42.84 33.19 54.75 50.52 59.84l5.812 1.688c29.28 8.375 28.8 11.19 27.92 16.28c-1.375 7.812-16.59 9.75-30.31 7.625c-6.938-1.031-15.81-4.219-23.66-7.031l-4.469-1.625c-10.41-3.594-21.83 1.812-25.52 12.22c-3.672 10.41 1.781 21.84 12.2 25.53l4.266 1.5c7.758 2.789 16.38 5.59 25.06 7.512V424c0 11.03 8.953 20 20 20s20-8.969 20-20v-6.254c22.36-4.793 38.21-18.53 41.83-39.43C261.3 335 219.8 323.1 197.5 316.8z"/>
</svg>
